X: 4
T: Sean Bui
R: jig
M: 6/8
L: 1/8
K: Dmaj
(d/e/)|fed AFA|BGB AFA|fed AFA|Bgf e2 (d/e/)|
fed AFA|BGB AFA|fed AFA|B2 c d2:|
|:(d/e/)|f2 a e2 a|ded cBA |f2 a e2 a|gfg a2 a|
bgb afa|geg fde|fed AFA|B2 c d2:|


Tune 235	Setting 235

